X:1
T:Molly on the Shore [1]
T:Molly on the Shore [1]
L:1/8
M:4/4
K:Emin
V:1 treble 
V:1
 B/A/ | GEDB cABA | (3GAG BG AGEF | GEDB cABA | (3GAG BG A2 G :| d | gfgd ecdB | (3GAG BG AGEf | %8
 gfgd ecdB | (3GAG BG A2 Gf | gfgd ecdB | (3GAG BG AGEF | GBAc Bdge | dBGB A2 (G || B) | %15
 cccA BBBA | (3GAG BG AGEB | cccA BBBA | (3GAG BG A2 G>B | c/c/ccA B/B/BBA | (3GAG BG AGEA | %21
 GEDB cABA | (3GAG BG A2 G2 || %23

